ARRI_LogC4-to-Gamma24_Rec709-D65_v1-65.cube
LUT_3D_SIZE 65
0.00000000 0.00000000 0.00000000
0.00000000 0.00009793 0.00001909
0.00000000 0.00074689 0.00060310
0.00000000 0.00165560 0.00146786
0.00019355 0.00254664 0.00243692
0.00214102 0.00296956 0.00321465
0.00601448 0.00265073 0.00369366
0.01128378 0.00242427 0.00468197
0.01791150 0.00249035 0.00638530
0.02637314 0.00284197 0.00880951
0.03745151 0.00343336 0.01190843
0.05190888 0.00424144 0.01559833
0.07039513 0.00514123 0.01977225
0.09338071 0.00612868 0.02435780
0.12115274 0.00697393 0.02930548
0.15376065 0.00758524 0.03459479
0.19101209 0.00827365 0.04024600
0.23253928 0.00934012 0.04629126
0.27790322 0.01015850 0.05273707
0.32660585 0.01078059 0.05963175
0.37804133 0.01221906 0.06705044
0.43149847 0.01453537 0.07499276
0.48616254 0.01718902 0.08338688
0.54116186 0.02006727 0.09213723
0.59569131 0.02287171 0.10111049
0.64912709 0.02469031 0.11012727
0.70104387 0.02534371 0.11903412
0.75127042 0.02380796 0.12763781
0.79975955 0.02030316 0.13582291
0.84643263 0.01573483 0.14360580
0.89076750 0.01387608 0.15139584
0.93125723 0.02256251 0.16030151
0.96502611 0.05110658 0.17226710
0.98833534 0.10587534 0.18961135
0.99959572 0.17397670 0.21290164
1.00000000 0.23726704 0.23897207
1.00000000 0.28932340 0.26536697
1.00000000 0.33135627 0.29125887
1.00000000 0.36701960 0.31687190
1.00000000 0.39974302 0.34290888
0.99987767 0.43180635 0.37010511
0.99986089 0.46448446 0.39909991
0.99989717 0.49826190 0.43026463
0.99992689 0.53336585 0.46391812
0.99994117 0.56981704 0.50020243
0.99996796 0.60742075 0.53897579
0.99998800 0.64601982 0.58011119
0.99999839 0.68525415 0.62316573
1.00000000 0.72465141 0.66752824
1.00000000 0.76358421 0.71234414
1.00000000 0.80127316 0.75649290
1.00000000 0.83697258 0.79896568
1.00000000 0.86992418 0.83868322
0.99999997 0.89941605 0.87455209
0.99999992 0.92492433 0.90580397
0.99999993 0.94615699 0.93202365
0.99999996 0.96306314 0.95308021
0.99999998 0.97583899 0.96913007
0.99999999 0.98491221 0.98062073
1.00000000 0.99090389 0.98826374
1.00000000 0.99456455 0.99296295
1.00000000 0.99666694 0.99567657
1.00000000 0.99785485 0.99721617
1.00000000 0.99853024 0.99809332
1.00000000 0.99885862 0.99851992
0.00021621 0.00000000 0.00000000
0.00012822 0.00009925 0.00026892
0.00000000 0.00074029 0.00086803
0.00000000 0.00164267 0.00174201
0.00049699 0.00253470 0.00270023
0.00243812 0.00294361 0.00344139
0.00635779 0.00257604 0.00386737
0.01168748 0.00229880 0.00482622
0.01836417 0.00232382 0.00652307
0.02686709 0.00265471 0.00895576
0.03797915 0.00323980 0.01206312
0.05246490 0.00404111 0.01575027
0.07097421 0.00495173 0.01990762
0.09398324 0.00593558 0.02446018
0.12177936 0.00680138 0.02936441
0.15441586 0.00745648 0.03460460
0.19170685 0.00816908 0.04020372
0.23328366 0.00926788 0.04619985
0.27870037 0.01012451 0.05260263
0.32744722 0.01077910 0.05946129
0.37890804 0.01219822 0.06685001
0.43236339 0.01453821 0.07477121
0.48700068 0.01718883 0.08315022
0.54195398 0.02001229 0.09189040
0.59642357 0.02276697 0.10086046
0.64979242 0.02455489 0.10988067
0.70164019 0.02520421 0.11879741
0.75179989 0.02368431 0.12741524
0.80022593 0.02022197 0.13561778
0.84683873 0.01573553 0.14342158
0.89111115 0.01404468 0.15123954
0.93153042 0.02292412 0.16018331
0.96521410 0.05164099 0.17220168
0.98842739 0.10649641 0.18960988
0.99962726 0.17448416 0.21293819
1.00000000 0.23762346 0.23902296
1.00000000 0.28955931 0.26541930
1.00000000 0.33151364 0.29130756
1.00000000 0.36713124 0.31691614
1.00000000 0.39982895 0.34294933
0.99987759 0.43187728 0.37014280
0.99986070 0.46454498 0.39913520
0.99989722 0.49831370 0.43029728
0.99992727 0.53341006 0.46394819
0.99994184 0.56985435 0.50022969
0.99996844 0.60745207 0.53900036
0.99998825 0.64604591 0.58013305
0.99999849 0.68527561 0.62318475
1.00000000 0.72466885 0.66754450
1.00000000 0.76359816 0.71235774
1.00000000 0.80128408 0.75650392
1.00000000 0.83698094 0.79897436
1.00000000 0.86993040 0.83868985
0.99999998 0.89942054 0.87455696
0.99999992 0.92492745 0.90580740
0.99999993 0.94615906 0.93202597
0.99999996 0.96306447 0.95308171
0.99999998 0.97583978 0.96913099
0.99999999 0.98491265 0.98062125
1.00000000 0.99090412 0.98826401
1.00000000 0.99456466 0.99296308
1.00000000 0.99666698 0.99567662
1.00000000 0.99785487 0.99721619
1.00000000 0.99853025 0.99809333
1.00000000 0.99885863 0.99851993
0.00093819 0.00000000 0.00052115
0.00085461 0.00016718 0.00082407
0.00071038 0.00078358 0.00144019
0.00064828 0.00166243 0.00231675
0.00112883 0.00254752 0.00323751
0.00305072 0.00293597 0.00388524
0.00704157 0.00248305 0.00418648
0.01247192 0.00210171 0.00506607
0.01923324 0.00202800 0.00673380
0.02780522 0.00229036 0.00917157
0.03896829 0.00283329 0.01228972
0.05349170 0.00359911 0.01597261
0.07202871 0.00451084 0.02010467
0.09506888 0.00548174 0.02460500
0.12290370 0.00637686 0.02943901
0.15559364 0.00710955 0.03459969
0.19296141 0.00788168 0.04011493
0.23463325 0.00902441 0.04603092
0.28014546 0.00994358 0.05236359
0.32896677 0.01065444 0.05916347
0.38046461 0.01205155 0.06650276
0.43390808 0.01443953 0.07438821
0.48849032 0.01708043 0.08274022
0.54335653 0.01979232 0.09146044
0.59771684 0.02243864 0.10042179
0.65096441 0.02418682 0.10944659
0.70268844 0.02485357 0.11837973
0.75272957 0.02337356 0.12702138
0.80104421 0.02000911 0.13525418
0.84754990 0.01572396 0.14309608
0.89171259 0.01432088 0.15096320
0.93200780 0.02350261 0.15997424
0.96554125 0.05250973 0.17208621
0.98858791 0.10753303 0.18960587
0.99968068 0.17535405 0.21300221
1.00000000 0.23824255 0.23911306
1.00000000 0.28997005 0.26551201
1.00000000 0.33178632 0.29139351
1.00000000 0.36732346 0.31699384
1.00000000 0.39997653 0.34302009
0.99987745 0.43199928 0.37020860
0.99986047 0.46464946 0.39919674
0.99989736 0.49840347 0.43035426
0.99992797 0.53348686 0.46400064
0.99994301 0.56991926 0.50027729
0.99996928 0.60750658 0.53904324
0.99998869 0.64609130 0.58017118
0.99999865 0.68531294 0.62321794
1.00000000 0.72469918 0.66757287
1.00000000 0.76362240 0.71238143
1.00000000 0.80130305 0.75652311
1.00000000 0.83699543 0.79898946
1.00000000 0.86994117 0.83870136
1.00000000 0.89942829 0.87456538
0.99999993 0.92493282 0.90581333
0.99999994 0.94616264 0.93202998
0.99999996 0.96306673 0.95308428
0.99999998 0.97584113 0.96913254
0.99999999 0.98491340 0.98062212
1.00000000 0.99090451 0.98826446
1.00000000 0.99456483 0.99296329
1.00000000 0.99666706 0.99567671
1.00000000 0.99785490 0.99721623
1.00000000 0.99853026 0.99809335
1.00000000 0.99885864 0.99851995
0.00190829 0.00018961 0.00140753
0.00183940 0.00047204 0.00172449
0.00171100 0.00105095 0.00234950
0.00164766 0.00188799 0.00320829
0.00208366 0.00275473 0.00405504
0.00397531 0.00314289 0.00452908
0.00805188 0.00259765 0.00460048
0.01362856 0.00205838 0.00531182
0.02052840 0.00179895 0.00689318
0.02921293 0.00189734 0.00930478
0.04044986 0.00230940 0.01241699
0.05501494 0.00296138 0.01608715
0.07357241 0.00382363 0.02019131
0.09663857 0.00474056 0.02463598
0.12451869 0.00563173 0.02939376
0.15728306 0.00643593 0.03446965
0.19476042 0.00726963 0.03989699
0.23656172 0.00845033 0.04572996
0.28219284 0.00944229 0.05199224
0.33109415 0.01022853 0.05873512
0.38261617 0.01160848 0.06602664
0.43601833 0.01407903 0.07387792
0.49050516 0.01670921 0.08220206
0.54523847 0.01926291 0.09089875
0.59944107 0.02177965 0.09984859
0.65251486 0.02361889 0.10888395
0.70406843 0.02437642 0.11783810
0.75395027 0.02297507 0.12650816
0.80211589 0.01980917 0.13477979
0.84848164 0.01576258 0.14266837
0.89250158 0.01467198 0.15059713
0.93263394 0.02418852 0.15969569
0.96596876 0.05354312 0.17193174
0.98879555 0.10881659 0.18959933
0.99974623 0.17646035 0.21308719
1.00000000 0.23904123 0.23923323
1.00000000 0.29050230 0.26563540
1.00000000 0.33213874 0.29150725
1.00000000 0.36757067 0.31709607
1.00000000 0.40016595 0.34311282
0.99987733 0.43215619 0.37029464
0.99986031 0.46478439 0.39927718
0.99989765 0.49851985 0.43042875
0.99992895 0.53358667 0.46406923
0.99994456 0.57000376 0.50033952
0.99997042 0.60757758 0.53909931
0.99998927 0.64615043 0.58022103
0.99999885 0.68536154 0.62326131
1.00000000 0.72473864 0.66760992
1.00000000 0.76365392 0.71241235
1.00000000 0.80132769 0.75654812
1.00000000 0.83701423 0.79900912
1.00000000 0.86995512 0.83871631
1.00000000 0.89943830 0.87457630
0.99999995 0.92493974 0.90582099
0.99999995 0.94616722 0.93203512
0.99999997 0.96306961 0.95308757
0.99999998 0.97584284 0.96913452
0.99999999 0.98491434 0.98062322
1.00000000 0.99090497 0.98826501
1.00000000 0.99456504 0.99296353
1.00000000 0.99666714 0.99567681
1.00000000 0.99785493 0.99721626
1.00000000 0.99853028 0.99809337
1.00000000 0.99885865 0.99851996
0.00275668 0.00113267 0.00260562
0.00271619 0.00140069 0.00292532
0.00264040 0.00194705 0.00353557
0.00265097 0.00274519 0.00434036
0.00316636 0.00360040 0.00507448
0.00504335 0.00404339 0.00531495
0.00923759 0.00347661 0.00502996
0.01508041 0.00274880 0.00542768
0.02227096 0.00219519 0.00680471
0.03119984 0.00198654 0.00910133
0.04259884 0.00211874 0.01214234
0.05724938 0.00250762 0.01576159
0.07583750 0.00320345 0.01982926
0.09892851 0.00396367 0.02422419
0.12686061 0.00472840 0.02891695
0.15971564 0.00551220 0.03392939
0.19732111 0.00633656 0.03929905
0.23925967 0.00747868 0.04508411
0.28499577 0.00850295 0.05131700
0.33394018 0.00935884 0.05804802
0.38543223 0.01071515 0.06533554
0.43872806 0.01330653 0.07319153
0.49305061 0.01594277 0.08151771
0.54758290 0.01835527 0.09021194
0.60156030 0.02092234 0.09916964
0.65440565 0.02285152 0.10822094
0.70573999 0.02378110 0.11720111
0.75541948 0.02259806 0.12590611
0.80340238 0.01967560 0.13421954
0.84959995 0.01586996 0.14215803
0.89344976 0.01507045 0.15015533
0.93338665 0.02492171 0.15935646
0.96648089 0.05466715 0.17174238
0.98904059 0.11026830 0.18959042
0.99981889 0.17774231 0.21319060
1.00000000 0.23998052 0.23937973
1.00000000 0.29113281 0.26578531
1.00000000 0.33255663 0.29164472
1.00000000 0.36786314 0.31721897
1.00000000 0.40038969 0.34322392
0.99987735 0.43234171 0.37039759
0.99986032 0.46494431 0.39937343
0.99989814 0.49865815 0.43051792
0.99993023 0.53370552 0.46415136
0.99994649 0.57010447 0.50041405
0.99997181 0.60766224 0.53916643
0.99998997 0.64622093 0.58028069
0.99999906 0.68541949 0.62331320
1.00000000 0.72478567 0.66765422
1.00000000 0.76369146 0.71244929
1.00000000 0.80135700 0.75657796
1.00000000 0.83703657 0.79903255
1.00000000 0.86997167 0.83873409
1.00000000 0.89945014 0.87458926
0.99999998 0.92494790 0.90583005
0.99999997 0.94617260 0.93204118
0.99999997 0.96307298 0.95309141
0.99999998 0.97584481 0.96913681
0.99999999 0.98491541 0.98062448
1.00000000 0.99090549 0.98826563
1.00000000 0.99456526 0.99296380
1.00000000 0.99666722 0.99567690
1.00000000 0.99785496 0.99721630
1.00000000 0.99853029 0.99809338
1.00000000 0.99885866 0.99851997
0.00291399 0.00330008 0.00401397
0.00287965 0.00358344 0.00432519
0.00283027 0.00414684 0.00489780
0.00292149 0.00495854 0.00560792
0.00359958 0.00585530 0.00617726
0.00567996 0.00643502 0.00618722
0.01011121 0.00609127 0.00543454
0.01653250 0.00522657 0.00529589
0.02438278 0.00430692 0.00624877
0.03388258 0.00368074 0.00823523
0.04569661 0.00338106 0.01103697
0.06059877 0.00330949 0.01449152
0.07930411 0.00364063 0.01847839
0.10245895 0.00404137 0.02281333
0.13046342 0.00443586 0.02744956
0.16341569 0.00495506 0.03243409
0.20113189 0.00556192 0.03780789
0.24316079 0.00642271 0.04362202
0.28892289 0.00730191 0.04992185
0.33780675 0.00813945 0.05675456
0.38915235 0.00941832 0.06415719
0.44222271 0.01210196 0.07212979
0.49626471 0.01476912 0.08055512
0.55048484 0.01722840 0.08932863
0.60413983 0.02000855 0.09835231
0.65667689 0.02212174 0.10745409
0.70772707 0.02330087 0.11647944
0.75715322 0.02238756 0.12522766
0.80491432 0.01970424 0.13358450
0.85091292 0.01608212 0.14157208
0.89456379 0.01550838 0.14964079
0.93427106 0.02568770 0.15895719
0.96708082 0.05586722 0.17151809
0.98932353 0.11187642 0.18958014
0.99989799 0.17919468 0.21331383
1.00000000 0.24106133 0.23955375
1.00000000 0.29186586 0.26596265
1.00000000 0.33304496 0.29180653
1.00000000 0.36820508 0.31736305
1.00000000 0.40065078 0.34335386
0.99987762 0.43255786 0.37051795
0.99986056 0.46513057 0.39948601
0.99989888 0.49881929 0.43062228
0.99993184 0.53384406 0.46424751
0.99994883 0.57022193 0.50050130
0.99997347 0.60776101 0.53924501
0.99999077 0.64630320 0.58035051
0.99999924 0.68548710 0.62337389
1.00000000 0.72484052 0.66770601
1.00000000 0.76373523 0.71249246
1.00000000 0.80139115 0.75661281
1.00000000 0.83706258 0.79905986
1.00000000 0.86999091 0.83875480
1.00000000 0.89946388 0.87460431
1.00000000 0.92495735 0.90584055
0.99999999 0.94617881 0.93204818
0.99999999 0.96307684 0.95309584
0.99999999 0.97584707 0.96913943
0.99999999 0.98491661 0.98062590
1.00000000 0.99090607 0.98826632
1.00000000 0.99456550 0.99296409
1.00000000 0.99666731 0.99567700
1.00000000 0.99785499 0.99721633
1.00000000 0.99853031 0.99809339
1.00000000 0.99885867 0.99851998
0.00209044 0.00720688 0.00566150
0.00201557 0.00754802 0.00596197
0.00190089 0.00820818 0.00649744
0.00193061 0.00915588 0.00711803
0.00260795 0.01026989 0.00751978
0.00487155 0.01122537 0.00725286
0.00984317 0.01147580 0.00606423
0.01739087 0.01072982 0.00507435
0.02653300 0.00962265 0.00522264
0.03721529 0.00875075 0.00652979
0.04998663 0.00806211 0.00874737
0.06554867 0.00744700 0.01177927
0.08462748 0.00719936 0.01554838
0.10798438 0.00697695 0.01973266
0.13611961 0.00662990 0.02425270
0.16915771 0.00641360 0.02920489
0.20690270 0.00635255 0.03463545
0.24888828 0.00643766 0.04056799
0.29450888 0.00671146 0.04707314
0.34314597 0.00722479 0.05419825
0.39415385 0.00827364 0.06194033
0.44681538 0.01072841 0.07025496
0.50040102 0.01333824 0.07899182
0.55414746 0.01591775 0.08802497
0.60733817 0.01904108 0.09725388
0.65944808 0.02147192 0.10650285
0.71011869 0.02299136 0.11563324
0.75921817 0.02238259 0.12445570
0.80670239 0.01991388 0.13286816
0.85245968 0.01640932 0.14090767
0.89587411 0.01599610 0.14905113
0.93530999 0.02649857 0.15849568
0.96778334 0.05716295 0.17125863
0.98965076 0.11366693 0.18957198
0.99998496 0.18084514 0.21346222
1.00000000 0.24230939 0.23976070
1.00000000 0.29272320 0.26617214
1.00000000 0.33362088 0.29199666
1.00000000 0.36860941 0.31753171
1.00000000 0.40095883 0.34350572
0.99987815 0.43281186 0.37065859
0.99986105 0.46534872 0.39961766
0.99989992 0.49900763 0.43074439
0.99993386 0.53400586 0.46436005
0.99995166 0.57035907 0.50060343
0.99997546 0.60787634 0.53933698
0.99999169 0.64639928 0.58043223
0.99999934 0.68556606 0.62344491
1.00000000 0.72490459 0.66776659
1.00000000 0.76378634 0.71254292
1.00000000 0.80143101 0.75665353
1.00000000 0.83709291 0.79909176
1.00000000 0.87001333 0.83877896
1.00000000 0.89947989 0.87462186
1.00000000 0.92496833 0.90585277
1.00000000 0.94618601 0.93205631
1.00000000 0.96308132 0.95310097
0.99999999 0.97584967 0.96914246
0.99999999 0.98491800 0.98062754
0.99999999 0.99090672 0.98826711
1.00000000 0.99456576 0.99296441
1.00000000 0.99666740 0.99567711
1.00000000 0.99785502 0.99721636
1.00000000 0.99853032 0.99809341
1.00000000 0.99885868 0.99851999
0.00145946 0.01255389 0.00815598
0.00134101 0.01295696 0.00846536
0.00113667 0.01372016 0.00900682
0.00102299 0.01481411 0.00961347
0.00150135 0.01617440 0.00996187
0.00355179 0.01760915 0.00956131
0.00843303 0.01875226 0.00800955
0.01700255 0.01921600 0.00578100
0.02799120 0.01911057 0.00449411
0.04075328 0.01884928 0.00448875
0.05540312 0.01841160 0.00558649
0.07239435 0.01767978 0.00775117
0.09238243 0.01694840 0.01097052
0.11625444 0.01605165 0.01469933
0.14464507 0.01463506 0.01883722
0.17773289 0.01302513 0.02358170
0.21534392 0.01161240 0.02898921
0.25706222 0.01012227 0.03501937
0.30229923 0.00881220 0.04180776
0.35044289 0.00815062 0.04942851
0.40087083 0.00829998 0.05781469
0.45289204 0.00985261 0.06682303
0.50579789 0.01201268 0.07623090
0.55886083 0.01453796 0.08585070
0.61139786 0.01793676 0.09555450
0.66291124 0.02084576 0.10516152
0.71306422 0.02277670 0.11453890
0.76172865 0.02250031 0.12352148
0.80885319 0.02023662 0.13203523
0.85430564 0.01681477 0.14014782
0.89742980 0.01652696 0.14837837
0.93653897 0.02736422 0.15796883
0.96861079 0.05857970 0.17096568
0.99003175 0.11567723 0.18957339
1.00000000 0.18273394 0.21364566
1.00000000 0.24376112 0.24001015
1.00000000 0.29373469 0.26642184
1.00000000 0.33430754 0.29222162
1.00000000 0.36909361 0.31773032
1.00000000 0.40132696 0.34368412
0.99987876 0.43311376 0.37082378
0.99986171 0.46560663 0.39977235
0.99990127 0.49922949 0.43088795
0.99993635 0.53419605 0.46449242
0.99995508 0.57052011 0.50072356
0.99997785 0.60801173 0.53944516
0.99999276 0.64651207 0.58052831
0.99999935 0.68565878 0.62352840
1.00000000 0.72497983 0.66783779
0.99999996 0.76384636 0.71260222
0.99999978 0.80147783 0.75670137
0.99999991 0.83712853 0.79912922
1.00000000 0.87003965 0.83880732
1.00000000 0.89949867 0.87464245
1.00000000 0.92498122 0.90586710
1.00000000 0.94619446 0.93206585
1.00000000 0.96308657 0.95310698
1.00000000 0.97585271 0.96914600
0.99999999 0.98491962 0.98062946
0.99999999 0.99090749 0.98826803
0.99999999 0.99456608 0.99296478
1.00000000 0.99666750 0.99567724
1.00000000 0.99785505 0.99721640
1.00000000 0.99853034 0.99809342
1.00000000 0.99885870 0.99852000
0.00129803 0.01934518 0.01167100
0.00114823 0.01979239 0.01199375
0.00087534 0.02062726 0.01255492
0.00061074 0.02182432 0.01318451
0.00077887 0.02338464 0.01354942
0.00230856 0.02528010 0.01309985
0.00667001 0.02739405 0.01122387
0.01551116 0.02950392 0.00790051
0.02839481 0.03138470 0.00506494
0.04393246 0.03312694 0.00358142
0.06146121 0.03458177 0.00343463
0.08087368 0.03541578 0.00442229
0.10262599 0.03552007 0.00628178
0.12755334 0.03464042 0.00883046
0.15639055 0.03242175 0.01196955
0.18946835 0.02903069 0.01596486
0.22673483 0.02568815 0.02088416
0.26793881 0.02164478 0.02659559
0.31255466 0.01731458 0.03342071
0.35998176 0.01397779 0.04152796
0.40961963 0.01174738 0.05077660
0.46079028 0.01113112 0.06085651
0.51279780 0.01190340 0.07140191
0.56495213 0.01377512 0.08209065
0.61661342 0.01707515 0.09271028
0.66732181 0.02029990 0.10304037
0.71677385 0.02257573 0.11293740
0.76485058 0.02262003 0.12226547
0.81149451 0.02054802 0.13099404
0.85654715 0.01720552 0.13924370
0.89930198 0.01705068 0.14759895
0.93800803 0.02826146 0.15736793
0.96959379 0.06011946 0.17064141
0.99047910 0.11793247 0.18959591
1.00000000 0.18489679 0.21387926
1.00000000 0.24545223 0.24031631
1.00000000 0.29493117 0.26672338
1.00000000 0.33512970 0.29249044
1.00000000 0.36967702 0.31796598
1.00000000 0.40177023 0.34389500
0.99987899 0.43347539 0.37101876
0.99986234 0.46591374 0.39995493
0.99990290 0.49949244 0.43105743
0.99993939 0.53442079 0.46464870
0.99995922 0.57071011 0.50086539
0.99998074 0.60817136 0.53957286
0.99999404 0.64664505 0.58064173
0.99999930 0.68576809 0.62362692
0.99999961 0.72506855 0.66792180
0.99999830 0.76391715 0.71267218
0.99999859 0.80153304 0.75675779
0.99999932 0.83717054 0.79917340
0.99999988 0.87007069 0.83884077
1.00000000 0.89952081 0.87466672
1.00000000 0.92499641 0.90588400
1.00000000 0.94620442 0.93207709
1.00000000 0.96309275 0.95311407
1.00000000 0.97585630 0.96915018
0.99999999 0.98492152 0.98063171
0.99999999 0.99090839 0.98826911
0.99999999 0.99456644 0.99296523
1.00000000 0.99666763 0.99567739
1.00000000 0.99785509 0.99721645
1.00000000 0.99853036 0.99809344
1.00000000 0.99885871 0.99852002
0.00152642 0.02805615 0.01625939
0.00133403 0.02853663 0.01659724
0.00099326 0.02941958 0.01718872
0.00057764 0.03067936 0.01787109
0.00042186 0.03237313 0.01831663
0.00139252 0.03462463 0.01794297
0.00503196 0.03757851 0.01599340
0.01343204 0.04131223 0.01208776
0.02772235 0.04568817 0.00758068
0.04648916 0.05054397 0.00448166
0.06801014 0.05527415 0.00307718
0.09101028 0.05893624 0.00295616
0.11532834 0.06108304 0.00368307
0.14166468 0.06155340 0.00498920
0.17093211 0.06021961 0.00682009
0.20379622 0.05709151 0.00924191
0.24052613 0.05237491 0.01245115
0.28103837 0.04552964 0.01670068
0.32489969 0.03717310 0.02258996
0.37153074 0.02949509 0.03049614
0.42033313 0.02272547 0.04032141
0.47058931 0.01790629 0.05154418
0.52159610 0.01547226 0.06357264
0.57268992 0.01528708 0.07583962
0.62328468 0.01739575 0.08793746
0.67297461 0.02026001 0.09952100
0.72151311 0.02250466 0.11037744
0.76880798 0.02269312 0.12038102
0.81480726 0.02069956 0.12954841
0.85932458 0.01741506 0.13807803
0.90159474 0.01745001 0.14664916
0.93978997 0.02910367 0.15666385
0.97077656 0.06173576 0.17028070
0.99101160 0.12042698 0.18965208
1.00000000 0.18735185 0.21418257
1.00000000 0.24740907 0.24069829
1.00000000 0.29633896 0.26709240
1.00000000 0.33611062 0.29281503
1.00000000 0.37037923 0.31824783
1.00000000 0.40230484 0.34414572
0.99987812 0.43391008 0.37124990
0.99986260 0.46628093 0.40017112
0.99990470 0.49980531 0.43125803
0.99994301 0.53468727 0.46483365
0.99996418 0.57093491 0.50103320
0.99998422 0.60836002 0.53972392
0.99999560 0.64680214 0.58077586
0.99999923 0.68589723 0.62374342
0.99999828 0.72517337 0.66802112
0.99999620 0.76400080 0.71275488
0.99999709 0.80159829 0.75682448
0.99999858 0.83722019 0.79922562
0.99999965 0.87010738 0.83888030
1.00000000 0.89954699 0.87469541
1.00000000 0.92501437 0.90590397
1.00000000 0.94621619 0.93209037
1.00000000 0.96310006 0.95312244
1.00000000 0.97586054 0.96915512
0.99999999 0.98492378 0.98063438
0.99999999 0.99090946 0.98827039
0.99999999 0.99456688 0.99296575
0.99999999 0.99666778 0.99567757
1.00000000 0.99785514 0.99721650
1.00000000 0.99853038 0.99809347
1.00000000 0.99885874 0.99852004
0.00226869 0.03940720 0.02207160
0.00209211 0.03990899 0.02241946
0.00172186 0.04081545 0.02303625
0.00116704 0.04209453 0.02377583
0.00066992 0.04384247 0.02433183
0.00102575 0.04630709 0.02411549
0.00374884 0.04987685 0.02225694
0.01120506 0.05498657 0.01801987
0.02578862 0.06185441 0.01204455
0.04753135 0.07027531 0.00720057
0.07367746 0.07910082 0.00433260
0.10137311 0.08647459 0.00315399
0.12930250 0.09145040 0.00308067
0.15773733 0.09395348 0.00358789
0.18770065 0.09417717 0.00443640
0.22023799 0.09223118 0.00557103
0.25606013 0.08798813 0.00705454
0.29546073 0.08094121 0.00932262
0.33832690 0.07105003 0.01280466
0.38419820 0.05912943 0.01861662
0.43233687 0.04622001 0.02762004
0.48186637 0.03512418 0.03911603
0.53202518 0.02679881 0.05232923
0.58211801 0.02204218 0.06633512
0.63159834 0.02093276 0.08037760
0.68013442 0.02195125 0.09380372
0.72757164 0.02316496 0.10619360
0.77387853 0.02287193 0.11735856
0.81903479 0.02059126 0.12733574
0.86283736 0.01722043 0.13641000
0.90446091 0.01749481 0.14538226
0.94199268 0.02971908 0.15577850
0.97222526 0.06332514 0.16985474
0.99165908 0.12312015 0.18974744
1.00000000 0.19009593 0.21457629
1.00000000 0.24964469 0.24117904
1.00000000 0.29797650 0.26754848
1.00000000 0.33726966 0.29321054
1.00000000 0.37121879 0.31858745
1.00000000 0.40294768 0.34444550
0.99987540 0.43443265 0.37152502
0.99986209 0.46672082 0.40042785
0.99990651 0.50017854 0.43149596
0.99994716 0.53500400 0.46505285
0.99996997 0.57120141 0.50123198
0.99998832 0.60858332 0.53990277
0.99999746 0.64698791 0.58093462
0.99999918 0.68604990 0.62388126
0.99999670 0.72529728 0.66813862
0.99999370 0.76409970 0.71285269
0.99999528 0.80167545 0.75690336
0.99999768 0.83727891 0.79928737
0.99999938 0.87015078 0.83892704
1.00000000 0.89957795 0.87472934
1.00000000 0.92503561 0.90592758
1.00000000 0.94623012 0.93210608
1.00000000 0.96310871 0.95313234
1.00000000 0.97586556 0.96916096
1.00000000 0.98492645 0.98063754
0.99999998 0.99091073 0.98827191
0.99999998 0.99456739 0.99296637
0.99999999 0.99666796 0.99567778
1.00000000 0.99785520 0.99721657
1.00000000 0.99853041 0.99809350
1.00000000 0.99885876 0.99852007
0.00330229 0.05404869 0.02925001
0.00316892 0.05456200 0.02959335
0.00283008 0.05547356 0.03021178
0.00220977 0.05674069 0.03098417
0.00140090 0.05848234 0.03164192
0.00100423 0.06103616 0.03162508
0.00255275 0.06498698 0.03001556
0.00861376 0.07109619 0.02580942
0.02230895 0.07998664 0.01896435
0.04580204 0.09156137 0.01187048
0.07608839 0.10434451 0.00699309
