ARRI_LogC4-to-Gamma24_Rec709-D65_v1-65.cube
LUT_3D_SIZE 9
0.00000000 0.00000000 0.00000000
0.01791150 0.00249035 0.00638530
0.19101209 0.00827365 0.04024600
0.59569131 0.02287171 0.10111049
0.96502611 0.05110658 0.17226710
0.99987767 0.43180635 0.37010511
1.00000000 0.72465141 0.66752824
0.99999996 0.96306314 0.95308021
1.00000000 0.99885862 0.99851992
0.00129803 0.01934518 0.01167100
0.02839481 0.03138470 0.00506494
0.22673483 0.02568815 0.02088416
0.61661342 0.01707515 0.09271028
0.96959379 0.06011946 0.17064141
0.99987899 0.43347539 0.37101876
0.99999961 0.72506855 0.66792180
1.00000000 0.96309275 0.95311407
1.00000000 0.99885871 0.99852002
0.00437723 0.18653012 0.08640548
0.00254498 0.21388930 0.08537999
0.32066080 0.33073640 0.00655251
0.68680116 0.25213379 0.02237420
0.99121303 0.09660022 0.15770873
0.99980025 0.44045389 0.37477801
0.99997755 0.72669495 0.66946573
1.00000000 0.96320583 0.95324358
1.00000000 0.99885906 0.99852036
0.00859749 0.53075637 0.22423215
0.00843555 0.54342551 0.22670485
0.04627305 0.61312349 0.13865188
0.63822453 0.65227055 0.01697101
1.00000000 0.48318919 0.18698564
0.99973530 0.47099702 0.39159856
1.00000000 0.73310409 0.67553432
1.00000000 0.96363562 0.95373725
1.00000000 0.99886047 0.99852175
0.00000000 0.87391650 0.31979851
0.00000000 0.87695638 0.32057516
0.00000000 0.88963494 0.32916944
0.10458244 0.94676097 0.16317413
0.86503579 0.89380810 0.02228132
1.00000000 0.70527452 0.53836302
0.99997073 0.76003584 0.70143459
1.00000000 0.96528882 0.95563014
0.99999998 0.99886496 0.99852640
0.67717506 1.00000000 0.67649383
0.67939486 1.00000000 0.67815065
0.68813838 1.00000000 0.68465353
0.71705231 1.00000000 0.71125252
0.82601503 1.00000000 0.78667736
0.97127666 0.98576373 0.68650380
1.00000000 0.90313903 0.83554049
0.99999194 0.97139452 0.96276705
1.00000000 0.99889682 0.99855690
0.87887745 1.00000000 0.86511353
0.87899336 1.00000000 0.86520869
0.87944183 1.00000000 0.86558314
0.88129103 1.00000000 0.86710542
0.88871335 0.99998912 0.87320713
0.92942553 1.00000000 0.90325186
0.99196102 0.99872976 0.93689185
1.00000000 0.99139537 0.98424179
0.99999856 0.99897470 0.99865551
0.98377377 0.99999992 0.98041628
0.98378533 0.99999992 0.98042939
0.98382978 0.99999994 0.98047981
0.98399899 0.99999996 0.98067187
0.98465850 0.99999997 0.98141750
0.98700605 1.00000000 0.98415821
0.99399493 1.00000000 0.99145600
0.99931320 0.99992846 0.99548423
1.00000000 0.99979558 0.99966878
0.99949150 1.00000000 0.99937360
0.99949150 1.00000000 0.99937359
0.99949150 1.00000000 0.99937356
0.99949149 1.00000000 0.99937343
0.99949204 1.00000000 0.99937385
0.99950449 0.99999996 0.99938581
0.99952863 1.00000000 0.99941705
0.99966002 0.99999897 0.99949932
0.99995676 0.99999889 0.99968130
0.00127762 0.00085864 0.00934638
0.02601647 0.00397158 0.02135301
0.20963758 0.01097218 0.07644017
0.60742462 0.02516695 0.13531251
0.96843109 0.05401636 0.18496485
0.99988275 0.43325002 0.37328177
1.00000000 0.72496838 0.66817913
1.00000000 0.96308163 0.95311513
1.00000000 0.99885850 0.99851986
0.00143332 0.02708779 0.02517519
0.05077009 0.05077009 0.05077009
0.27625841 0.01545838 0.07916094
0.63018702 0.02917804 0.13160454
0.97302531 0.06796506 0.18358992
0.99986977 0.43492512 0.37420257
0.99999588 0.72538543 0.66857263
1.00000000 0.96311123 0.95314898
1.00000000 0.99885859 0.99851995
0.00633349 0.20457975 0.10856136
0.00214869 0.25396091 0.12349436
0.33167213 0.33948953 0.02034174
0.71674667 0.23306164 0.05950895
0.99283230 0.11922782 0.17549931
0.99979706 0.44188090 0.37797902
0.99997424 0.72701228 0.67011592
1.00000000 0.96322432 0.95327848
1.00000000 0.99885893 0.99852029
0.00740194 0.54084537 0.23342699
0.00830100 0.55563388 0.23669388
0.04145020 0.62501609 0.15341655
0.64189932 0.65392832 0.02986412
1.00000000 0.48576749 0.20769568
0.99972983 0.47252965 0.39481726
1.00000000 0.73342184 0.67617952
1.00000000 0.96365410 0.95377208
1.00000000 0.99886035 0.99852168
0.00000000 0.87619110 0.32455397
0.00000000 0.87931359 0.32539086
0.00000000 0.89224777 0.33398204
0.10351805 0.94893326 0.16763968
0.86543950 0.89398080 0.02711164
1.00000000 0.70613950 0.54102109
0.99997081 0.76033793 0.70204851
1.00000000 0.96530704 0.95566427
0.99999998 0.99886485 0.99852634
0.67865411 1.00000000 0.67816608
0.68087581 1.00000000 0.67983339
0.68958670 1.00000000 0.68638377
0.71839692 1.00000000 0.71280373
0.82646450 1.00000000 0.78744793
0.97128690 0.98575278 0.68698073
1.00000000 0.90325382 0.83588295
0.99999196 0.97141170 0.96279866
1.00000000 0.99889671 0.99855684
0.87900344 1.00000000 0.86527795
0.87911909 1.00000000 0.86537332
0.87956792 1.00000000 0.86574900
0.88142285 1.00000000 0.86727743
0.88884961 0.99998905 0.87338689
0.92951060 1.00000000 0.90339422
0.99197010 0.99872715 0.93691297
1.00000000 0.99139860 0.98425283
0.99999856 0.99897469 0.99865557
0.98378549 0.99999992 0.98043184
0.98379705 0.99999993 0.98044494
0.98384151 0.99999994 0.98049536
0.98401070 0.99999996 0.98068740
0.98467007 0.99999998 0.98143285
0.98701676 1.00000000 0.98417231
0.99399710 1.00000000 0.99145994
0.99931337 0.99992842 0.99548506
1.00000000 0.99979555 0.99966874
0.99949149 1.00000000 0.99937360
0.99949150 1.00000000 0.99937360
0.99949149 1.00000000 0.99937356
0.99949149 1.00000000 0.99937343
0.99949206 1.00000000 0.99937388
0.99950454 0.99999996 0.99938589
0.99952866 1.00000000 0.99941709
0.99966004 0.99999897 0.99949935
0.99995677 0.99999889 0.99968131
0.00243967 0.04524177 0.11463683
0.04429454 0.01015864 0.18558077
0.30586591 0.01979370 0.25868635
0.64987256 0.02841272 0.31484952
0.98516191 0.09052594 0.29167838
0.99979790 0.43975494 0.38783992
0.99998520 0.72621255 0.67077024
1.00000000 0.96315207 0.95324802
1.00000000 0.99885801 0.99851960
0.00270926 0.07080041 0.14108414
0.03443546 0.04479341 0.22919979
0.34195487 0.01846998 0.29099748
0.67333060 0.03476938 0.32287404
0.98850042 0.11313824 0.29241286
0.99978888 0.44144262 0.38874681
0.99997933 0.72663018 0.67116391
1.00000000 0.96318167 0.95328184
1.00000000 0.99885811 0.99851969
0.00500366 0.27872838 0.26538893
0.00000000 0.30461685 0.28909140
0.33001314 0.33001314 0.33001314
0.75123590 0.22932195 0.34163620
0.99988332 0.18542766 0.29715280
0.99982889 0.44842609 0.39243782
0.99997419 0.72825737 0.67270099
1.00000000 0.96329478 0.95341138
1.00000000 0.99885845 0.99852004
0.00902372 0.57240952 0.35552689
0.00880586 0.58760470 0.36334603
0.04683191 0.64202276 0.35120088
0.63425484 0.65020346 0.32598556
0.99611931 0.51392065 0.35455336
0.99972852 0.47924636 0.40899813
1.00000000 0.73467023 0.67874949
1.00000000 0.96372445 0.95390457
1.00000000 0.99885987 0.99852143
0.00000000 0.88270717 0.37174140
0.00000000 0.88611991 0.37280305
0.00000000 0.90000171 0.37845648
0.08301416 0.95546810 0.22815668
0.86558113 0.89435945 0.11885358
1.00000000 0.70995162 0.55112538
0.99997072 0.76153451 0.70452014
1.00000000 0.96537632 0.95579393
0.99999998 0.99886440 0.99852611
0.68412079 1.00000000 0.68405136
0.68633681 1.00000000 0.68576349
0.69496247 1.00000000 0.69241309
0.72416072 1.00000000 0.71833054
0.82833950 1.00000000 0.78868245
0.97131632 0.98568351 0.68838190
1.00000000 0.90371091 0.83726400
0.99999204 0.97147773 0.96291970
1.00000000 0.99889625 0.99855660
0.87948898 1.00000000 0.86594694
0.87960516 1.00000000 0.86604282
0.88005838 1.00000000 0.86642192
0.88193129 1.00000000 0.86795994
0.88937914 0.99998906 0.87410358
0.92984629 1.00000000 0.90396648
0.99200617 0.99871621 0.93699041
1.00000000 0.99141107 0.98429558
0.99999856 0.99897462 0.99865576
0.98383031 0.99999993 0.98049124
0.98384188 0.99999993 0.98050434
0.98388632 0.99999995 0.98055473
0.98405543 0.99999996 0.98074675
0.98471392 0.99999997 0.98149119
0.98705779 1.00000000 0.98422627
0.99400531 1.00000000 0.99147487
0.99931405 0.99992825 0.99548827
1.00000000 0.99979543 0.99966861
0.99949148 1.00000000 0.99937362
0.99949149 1.00000000 0.99937362
0.99949148 1.00000000 0.99937358
0.99949147 1.00000000 0.99937344
0.99949219 1.00000000 0.99937407
0.99950476 0.99999996 0.99938621
0.99952873 1.00000000 0.99941721
0.99966009 0.99999897 0.99949947
0.99995678 0.99999889 0.99968136
0.00582081 0.20802453 0.44689247
0.00321827 0.19043702 0.50993964
0.31689661 0.09042671 0.63581624
0.69177504 0.02112492 0.58846850
0.99405317 0.14743678 0.51578784
0.99977958 0.47451683 0.48836504
0.99999384 0.73156472 0.68232473
1.00000000 0.96341705 0.95375547
1.00000000 0.99885607 0.99851814
0.00572366 0.22054273 0.45859071
0.00112425 0.21200049 0.51288179
0.31894050 0.12573809 0.64858550
0.70140077 0.03675122 0.59749471
0.99660913 0.16101277 0.51813093
0.99978556 0.47638605 0.48935808
0.99999657 0.73197987 0.68270517
1.00000000 0.96344669 0.95378930
1.00000000 0.99885616 0.99851824
0.00721656 0.31967631 0.50653079
0.00608278 0.32489592 0.53047140
0.27626602 0.30439394 0.65932117
0.73788163 0.17480344 0.63401918
1.00000000 0.22890462 0.52743831
0.99983925 0.48396622 0.49340038
0.99999779 0.73359798 0.68419588
1.00000000 0.96355988 0.95391872
1.00000000 0.99885651 0.99851859
0.01157801 0.61246873 0.58452199
0.01614345 0.61841353 0.59046588
0.10858965 0.63865510 0.61211796
0.62248301 0.62248301 0.62248301
0.97941396 0.55126733 0.60339192
0.99993196 0.51602809 0.51094373
1.00000000 0.73997350 0.69007489
1.00000000 0.96398949 0.95441071
0.99999999 0.99885795 0.99852001
0.00727823 0.88667282 0.56274654
0.01225537 0.88968053 0.56396587
0.03239061 0.90091639 0.56783205
0.28750229 0.92348636 0.55557628
0.84582170 0.87401345 0.61028320
1.00000000 0.74071796 0.64490652
0.99994958 0.76655124 0.71514923
1.00000000 0.96563932 0.95629211
0.99999998 0.99886259 0.99852483
0.69501160 1.00000000 0.71258371
0.69743364 1.00000000 0.71406106
0.70670198 1.00000000 0.71992699
0.73415914 1.00000000 0.74122902
0.82498272 1.00000000 0.78689888
0.97067328 0.98508269 0.70294336
1.00000000 0.90555430 0.84290389
0.99999237 0.97172807 0.96338590
1.00000000 0.99889441 0.99855537
0.88130703 1.00000000 0.86846587
0.88142646 1.00000000 0.86856395
0.88189269 1.00000000 0.86894868
0.88378227 1.00000000 0.87048170
0.89133697 0.99997505 0.87682354
0.93115860 1.00000000 0.90629377
0.99213988 0.99867558 0.93720882
1.00000000 0.99145811 0.98446221
0.99999856 0.99897432 0.99865634
0.98401238 0.99999986 0.98073005
0.98402392 0.99999986 0.98074315
0.98406821 0.99999988 0.98079351
0.98423715 0.99999986 0.98098582
0.98488877 1.00000000 0.98172300
0.98721840 1.00000000 0.98443687
0.99403638 1.00000000 0.99153173
0.99931665 0.99992759 0.99550029
1.00000000 0.99979500 0.99966809
0.99949114 1.00000000 0.99937332
0.99949114 1.00000000 0.99937332
0.99949113 1.00000000 0.99937328
0.99949109 1.00000000 0.99937310
0.99949261 1.00000000 0.99937468
0.99950545 0.99999995 0.99938718
0.99952902 1.00000000 0.99941765
0.99966028 0.99999897 0.99949991
0.99995681 0.99999889 0.99968153
0.00790876 0.35749081 0.75964522
0.00780368 0.35528383 0.77804769
0.04687560 0.31135953 0.90789973
0.54689636 0.31411806 0.93412285
0.97292803 0.09111793 0.83132377
0.99980569 0.50526167 0.64795502
1.00000000 0.75379774 0.74503187
0.99999954 0.96442197 0.95574061
1.00000000 0.99885028 0.99852071
0.00758220 0.36257720 0.76286176
0.00759866 0.36048545 0.78093134
0.04202760 0.32063164 0.90588041
0.54742463 0.32216589 0.93563912
0.97448241 0.09875530 0.83292770
0.99980168 0.50705034 0.64880000
1.00000000 0.75422823 0.74539309
0.99999953 0.96445132 0.95577353
1.00000000 0.99885038 0.99852081
0.00575590 0.38264384 0.77584710
0.00559303 0.38117796 0.79241921
0.04531500 0.35511843 0.89926832
0.54873231 0.35535612 0.93871325
0.98027282 0.13984589 0.83904004
0.99978994 0.51416798 0.65220063
1.00000000 0.75590338 0.74680580
0.99999950 0.96456341 0.95589958
1.00000000 0.99885075 0.99852116
0.06719219 0.57701869 0.86579686
0.08093132 0.57811758 0.87192428
0.14689038 0.58102896 0.89813653
0.55044955 0.59056769 0.90500479
0.97049544 0.44175584 0.84751966
1.00000000 0.54219647 0.66613061
1.00000000 0.76247551 0.75234722
0.99999961 0.96498855 0.95637876
1.00000000 0.99885225 0.99852256
0.46738729 0.85973562 0.82654713
0.47142139 0.86033358 0.82740373
0.48619310 0.86230977 0.83047225
0.59375247 0.86190629 0.83768504
0.84011246 0.84011246 0.84011246
1.00000000 0.77508357 0.79453675
0.99994539 0.78870495 0.77483958
1.00000000 0.96662313 0.95821478
0.99999999 0.99885724 0.99852747
0.64918584 1.00000000 0.79060799
0.65106156 1.00000000 0.79133418
0.65801350 1.00000000 0.79409909
0.68155294 1.00000000 0.80387154
0.78094201 0.99733436 0.82389882
0.95583149 0.97247263 0.83718731
1.00000000 0.91702723 0.88216830
0.99999082 0.97263472 0.96512991
1.00000000 0.99888868 0.99855624
0.90040932 0.99994966 0.89357003
0.90051770 0.99994983 0.89366571
0.90093800 0.99995052 0.89403757
0.90261523 0.99994719 0.89548592
0.90928757 0.99994320 0.90155200
0.94231872 1.00000000 0.92544683
0.99266838 0.99820324 0.93715802
1.00000000 0.99161949 0.98504510
0.99999859 0.99897333 0.99866123
0.98451930 1.00000000 0.98140663
0.98453066 1.00000000 0.98141940
0.98457423 1.00000000 0.98146853
0.98473915 1.00000000 0.98165516
0.98536610 1.00000000 0.98235989
0.98769975 0.99999790 0.98504598
0.99413213 1.00000000 0.99172283
0.99932708 0.99992578 0.99554509
1.00000000 0.99979311 0.99966625
0.99949482 0.99999998 0.99937885
0.99949486 0.99999998 0.99937889
0.99949501 0.99999998 0.99937904
0.99949570 0.99999998 0.99937973
0.99949913 0.99999997 0.99938351
0.99951029 0.99999995 0.99939434
0.99953038 1.00000000 0.99941969
0.99966095 0.99999894 0.99950154
0.99995697 0.99999890 0.99968216
0.18990309 0.54247097 1.00000000
0.19602314 0.54297520 1.00000000
0.22901124 0.54592275 1.00000000
0.31883888 0.55530811 1.00000000
0.71582542 0.57935425 1.00000000
1.00000000 0.55696966 0.87616464
0.99988373 0.78221161 0.83338826
1.00000000 0.96819483 0.96606811
0.99999996 0.99881141 0.99846622
0.19195940 0.54427094 1.00000000
0.19794603 0.54477824 1.00000000
0.23102921 0.54772770 1.00000000
0.32010456 0.55708469 1.00000000
0.71608118 0.58108324 1.00000000
1.00000000 0.55803753 0.87635173
0.99988459 0.78259875 0.83364695
1.00000000 0.96822359 0.96609648
0.99999996 0.99881154 0.99846636
0.19973154 0.55138018 1.00000000
0.20658241 0.55198507 1.00000000
0.23895498 0.55485185 1.00000000
0.32515490 0.56409025 1.00000000
0.71707704 0.58769856 1.00000000
1.00000000 0.56226310 0.87707998
0.99988679 0.78410658 0.83465716
1.00000000 0.96833331 0.96620525
0.99999996 0.99881203 0.99846689
0.23487045 0.57766386 1.00000000
0.24188603 0.57832532 1.00000000
0.26815050 0.58096132 1.00000000
0.34491555 0.58971796 1.00000000
0.72120589 0.61206497 1.00000000
1.00000000 0.57846281 0.87999777
0.99988318 0.78994354 0.83855576
1.00000000 0.96874877 0.96661780
0.99999996 0.99881396 0.99846895
0.49249333 0.78555993 0.99826362
0.49485493 0.78581363 0.99827775
0.50415280 0.78676088 0.99837910
0.54094814 0.79035303 0.99665192
0.76865283 0.80462346 0.98805314
1.00000000 0.71967013 0.91275544
0.99988480 0.81150945 0.85335538
1.00000000 0.97034393 0.96818997
0.99999993 0.99882040 0.99847632
0.78583854 0.96693548 0.94649078
0.78635280 0.96697062 0.94658281
0.78835130 0.96709443 0.94692788
0.79577929 0.96742940 0.94813884
0.84806135 0.96416903 0.95034548
0.95160883 0.95160883 0.95160883
1.00000000 0.93073187 0.93555451
0.99998669 0.97586029 0.97372019
1.00000000 0.99885537 0.99851273
0.92106477 1.00000000 0.94601993
0.92116534 1.00000000 0.94607897
0.92155136 1.00000000 0.94630685
0.92301094 1.00000000 0.94715444
0.92775042 1.00000000 0.95007597
0.94796657 1.00000000 0.95521480
0.98969494 0.99398382 0.96235778
1.00000000 0.99202219 0.98820596
0.99999849 0.99896585 0.99866084
0.98859812 0.99999098 0.98695139
0.98860713 0.99999098 0.98696108
0.98864188 0.99999098 0.98699855
0.98877383 0.99999103 0.98714133
0.98926855 0.99998985 0.98766687
0.99088720 0.99998655 0.98948360
0.99368974 1.00000000 0.99137972
0.99937813 0.99989356 0.99575490
1.00000000 0.99978646 0.99965548
0.99951444 1.00000000 0.99940172
0.99951448 1.00000000 0.99940177
0.99951463 1.00000000 0.99940192
0.99951516 1.00000000 0.99940246
0.99951714 1.00000000 0.99940465
0.99952523 1.00000000 0.99941210
0.99953841 0.99999977 0.99943006
0.99966334 0.99999848 0.99950874
0.99995751 0.99999876 0.99968421
0.68595289 0.83041500 0.99993645
0.68653438 0.83060687 0.99994496
0.68880480 0.83134085 0.99998218
0.69758403 0.83411276 1.00000000
0.72994894 0.84392031 0.99985728
0.90317688 0.86299134 1.00000000
1.00000000 0.87507687 0.95181370
0.99998466 0.97869276 0.98338780
1.00000000 0.99854342 0.99842367
0.68637566 0.83069414 0.99993865
0.68695835 0.83088576 0.99994672
0.68922660 0.83161902 0.99998265
0.69799370 0.83438585 1.00000000
0.73030324 0.84417681 0.99985737
0.90326276 0.86321698 1.00000000
1.00000000 0.87521590 0.95186700
0.99998465 0.97871175 0.98340196
1.00000000 0.99854365 0.99842389
0.68801296 0.83176656 0.99994567
0.68859214 0.83195689 0.99995380
0.69085692 0.83268739 0.99998440
0.69957463 0.83543438 1.00000000
0.73167969 0.84516328 0.99985770
0.90359532 0.86408607 1.00000000
1.00000000 0.87575522 0.95207380
0.99998462 0.97878463 0.98345645
1.00000000 0.99854448 0.99842472
0.69429076 0.83589084 0.99997425
0.69486242 0.83607679 0.99997858
0.69709279 0.83679265 0.99999112
0.70558684 0.83945984 0.99999875
0.73687107 0.84894413 0.99985549
0.90483504 0.86741138 1.00000000
1.00000000 0.87780424 0.95285923
0.99998466 0.97905919 0.98366182
1.00000000 0.99854770 0.99842793
0.71502286 0.84929536 0.99995817
0.71555817 0.84946382 0.99995860
0.71762839 0.85011507 0.99995898
0.72548195 0.85253129 0.99997583
0.75480454 0.86111709 1.00000000
0.90918384 0.87829505 1.00000000
1.00000000 0.88517539 0.95570932
0.99998526 0.98008661 0.98442471
1.00000000 0.99855943 0.99843990
0.84295195 0.93580121 1.00000000
0.84318426 0.93585533 1.00000000
0.84408521 0.93606456 1.00000000
0.84753242 0.93684157 1.00000000
0.86033353 0.93959845 1.00000000
0.93489767 0.94764335 0.99871483
1.00000000 0.93262058 0.97521097
0.99998077 0.98319240 0.98677933
1.00000000 0.99861376 0.99849213
0.94832738 0.99264481 0.98725490
0.94837010 0.99264594 0.98726224
0.94853464 0.99265004 0.98729039
0.94915674 0.99266357 0.98739484
0.95135092 0.99269697 0.98776023
0.96372847 0.99178821 0.98850665
0.98892280 0.98892280 0.98892280
1.00000000 0.99270409 0.99312499
0.99999817 0.99879439 0.99868107
0.98739211 1.00000000 0.99081252
0.98739932 1.00000000 0.99081737
0.98742728 1.00000000 0.99083625
0.98753303 1.00000000 0.99090771
0.98793116 1.00000000 0.99117366
0.98924920 1.00000000 0.99209771
0.99346659 1.00000000 0.99418276
0.99941790 0.99968075 0.99688788
1.00000000 0.99967974 0.99954688
0.99958380 0.99999839 0.99947627
0.99958377 0.99999839 0.99947626
0.99958360 0.99999840 0.99947618
0.99958297 0.99999840 0.99947588
0.99958034 0.99999844 0.99947462
0.99957027 0.99999838 0.99946775
0.99955896 0.99999701 0.99947307
0.99967620 0.99999812 0.99955872
0.99996195 0.99999981 0.99970708
0.97334859 0.98655075 1.00000000
0.97336928 0.98655869 0.99999999
0.97344667 0.98658852 0.99999993
0.97373732 0.98670053 0.99999978
0.97485858 0.98710401 1.00000000
0.97782559 0.98847348 0.99994172
0.99295138 0.99028850 1.00000000
1.00000000 0.99405270 0.99769153
0.99999853 0.99867943 0.99898152
0.97336609 0.98656017 1.00000000
0.97338675 0.98656811 0.99999998
0.97346407 0.98659791 0.99999993
0.97375450 0.98670983 0.99999979
0.97487476 0.98711294 1.00000000
0.97783955 0.98848092 0.99994179
0.99295362 0.99029357 1.00000000
1.00000000 0.99405412 0.99769214
0.99999853 0.99867962 0.99898166
0.97343181 0.98659556 0.99999999
0.97345236 0.98660347 0.99999998
0.97352946 0.98663316 0.99999993
0.97381907 0.98674473 0.99999979
0.97493553 0.98714647 1.00000000
0.97789284 0.98850886 0.99994212
0.99296222 0.99031252 1.00000000
1.00000000 0.99405945 0.99769441
0.99999853 0.99868037 0.99898219
0.97367609 0.98672645 0.99999985
0.97369643 0.98673425 0.99999985
0.97377282 0.98676358 0.99999986
0.97405973 0.98687392 0.99999981
0.97516321 0.98727063 1.00000000
0.97809301 0.98861263 0.99994333
0.99299413 0.99038342 1.00000000
1.00000000 0.99407963 0.99770300
0.99999853 0.99868319 0.99898420
0.97462803 0.98725049 1.00000000
0.97464743 0.98725783 1.00000000
0.97472019 0.98728536 1.00000000
0.97499340 0.98738925 1.00000000
0.97603162 0.98776408 1.00000000
0.97882978 0.98902641 0.99994934
0.99310823 0.99065766 1.00000000
1.00000000 0.99415514 0.99773541
0.99999852 0.99869388 0.99899182
0.97690726 0.98839871 0.99999308
0.97692490 0.98840526 0.99999310
0.97699175 0.98843014 0.99999321
0.97724277 0.98852359 0.99999363
0.97817763 0.98886041 0.99999539
0.98091229 0.98994020 0.99999314
0.99344484 0.99126149 1.00000000
1.00000000 0.99439517 0.99783872
0.99999860 0.99873467 0.99902068
0.98574452 0.99435000 0.99991348
0.98575115 0.99435175 0.99991346
0.98577658 0.99435847 0.99991340
0.98587247 0.99438371 0.99991320
0.98623358 0.99447467 0.99991219
0.98736159 0.99475459 0.99991507
0.99347760 0.99485953 0.99987203
1.00000000 0.99551174 0.99840457
0.99999699 0.99885792 0.99910824
0.99373522 0.99963639 0.99899954
0.99373669 0.99963656 0.99899991
0.99374233 0.99963722 0.99900132
0.99376375 0.99963972 0.99900663
0.99384413 0.99964868 0.99902634
0.99412492 0.99967816 0.99909445
0.99545060 0.99966859 0.99925406
0.99936345 0.99936345 0.99936345
1.00000000 0.99949084 0.99952128
0.99973479 0.99999911 0.99974329
0.99973479 0.99999911 0.99974330
0.99973478 0.99999911 0.99974334
0.99973475 0.99999911 0.99974350
0.99973465 0.99999912 0.99974410
0.99973517 0.99999906 0.99974644
0.99973827 0.99999884 0.99975917
0.99978917 1.00000000 0.99979813
0.99997760 1.00000000 0.99985663
0.99802371 0.99902498 1.00000000
0.99802400 0.99902506 1.00000000
0.99802512 0.99902539 1.00000000
0.99802950 0.99902665 1.00000000
0.99804347 0.99903125 0.99999989
0.99811686 0.99904738 1.00000000
0.99823581 0.99910018 0.99999295
0.99941988 0.99909341 1.00000000
1.00000000 0.99937187 0.99974838
0.99802392 0.99902510 1.00000000
0.99802421 0.99902518 1.00000000
0.99802533 0.99902552 1.00000000
0.99802971 0.99902677 1.00000000
0.99804368 0.99903137 0.99999989
0.99811704 0.99904750 1.00000000
0.99823598 0.99910029 0.99999295
0.99941990 0.99909350 1.00000000
1.00000000 0.99937190 0.99974839
0.99802476 0.99902557 1.00000000
0.99802505 0.99902565 1.00000000
0.99802616 0.99902599 1.00000000
0.99803054 0.99902724 1.00000000
0.99804451 0.99903183 0.99999989
0.99811774 0.99904794 1.00000000
0.99823663 0.99910070 0.99999297
0.99941999 0.99909386 1.00000000
1.00000000 0.99937204 0.99974846
0.99802804 0.99902745 1.00000000
0.99802832 0.99902753 1.00000000
0.99802943 0.99902786 1.00000000
0.99803378 0.99902911 1.00000000
0.99804771 0.99903367 0.99999989
0.99812042 0.99904969 1.00000000
0.99823909 0.99910229 0.99999303
0.99942037 0.99909530 1.00000000
1.00000000 0.99937256 0.99974869
0.99803847 0.99903315 0.99999997
0.99803875 0.99903324 0.99999997
0.99803986 0.99903357 0.99999997
0.99804416 0.99903482 0.99999997
0.99805826 0.99903940 0.99999988
0.99812986 0.99905524 1.00000000
0.99824841 0.99910774 0.99999319
0.99942172 0.99910051 1.00000000
1.00000000 0.99937454 0.99974957
0.99808863 0.99906363 1.00000000
0.99808889 0.99906370 1.00000000
0.99808989 0.99906398 1.00000000
0.99809374 0.99906505 1.00000000
0.99810711 0.99906897 1.00000000
0.99817054 0.99908284 1.00000000
0.99828283 0.99913240 0.99999404
0.99942612 0.99912007 1.00000000
1.00000000 0.99938185 0.99975287
0.99822178 0.99912285 0.99999702
0.99822200 0.99912291 0.99999702
0.99822284 0.99912315 0.99999702
0.99822603 0.99912405 0.99999703
0.99823782 0.99912745 0.99999707
0.99828706 0.99913967 0.99999710
0.99840289 0.99918533 0.99999471
0.99944185 0.99917476 1.00000000
1.00000000 0.99940787 0.99976430
0.99863576 0.99948605 1.00000000
0.99863590 0.99948608 1.00000000
0.99863643 0.99948619 1.00000000
0.99863858 0.99948668 1.00000000
0.99864640 0.99948843 1.00000000
0.99867569 0.99949444 1.00000000
0.99876255 0.99951576 1.00000000
0.99939042 0.99951113 1.00000000
1.00000000 0.99954253 0.99983594
0.99952066 1.00000000 0.99995793
0.99952069 1.00000000 0.99995793
0.99952080 1.00000000 0.99995795
0.99952119 1.00000000 0.99995799
0.99952271 1.00000000 0.99995818
0.99952845 1.00000000 0.99995886
0.99954699 1.00000000 0.99996139
0.99966824 1.00000000 0.99997408
1.00000000 1.00000000 1.00000000
